X: 13890
T: Fox On The Prowl, The
R: reel
M: 4/4
K: Dmajor
|:d2 fd eA A2|BAFA dAFA|AFde faaf|g2 fg egfe|
d2 fd eA A2|BAFA dAFG|Adde faaf|edef d3e:|
faaf dcde|faaf eA A2|BAFA defa|baaf e2 fa|
bf f2 afef|deed eA A2|BAFA dfaf|edef d3e:|

